X:1
T:What Jesus Is to Me
T:What Jesus Is to Me
T:William James Kirkpatrick, alt.
T:Edgar Mortimer Levy (1822-1906)
T:Public Domain Courtesy of the Cyber Hymnal™
C:William James Kirkpatrick, alt.
Z:Public Domain
Z:Courtesy of the Cyber Hymnal™
%%score ( 1 2 ) ( 3 4 )
L:1/8
Q:1/4=120
M:4/4
K:F
V:1 treble 
V:2 treble 
V:3 bass 
V:4 bass 
V:1
 [FA]2 | [FB]2 [FB]2 [FB]2 [FB]2 | [FA]2 [CG]2 F4 | [Fc]4 [Fd]4 | [Fc]6 [FA]2 | %5
w: 1.~King|Je- sus reigns with-|in my heart,|He’s my|Lord; For|
w: 2.~He|took a- way my|shame and sin,|He’s my|Lord; And|
w: 3.~He|now has tak- en|full con- trol,|He’s my|Lord; For|
w: 4.~No|mor- tal can with|Him com- pare,|He’s my|Lord; He|
w: 5.~His|voice now charms me|all the day,|He’s my|Lord; He|
 [FB]2 [FB]2 [FB]2 [FB]2 | [FA]2 [CG]2 F4 | F4 [EG]4 | [CF]6 x2 ||"^Refrain" C>C x4 | %10
w: Him I did with|all things part,|He’s my|Lord.||
w: made me clean and|white with- in,|He’s my|Lord.||
w: He has sanc- ti-|fied my soul,|He’s my|Lord.|He’s the|
w: is the fair- est|of the fair,|He’s my|Lord.||
w: drives all doubt and|fear a- way,|He’s my|Lord.||
 [CF] [CF]3 A3 G | F2 D6 | [CF]4 [EG]4 | [FA]6 C>C | [CF]2 A4 G2 | F2 D6 | [CF]4 [CG]4 | %17
w: |||||||
w: |||||||
w: Li- ly of the|Val- ley,|Yes, my|Lord; He’s the|White Rose of|Shar- on,|Yes, my|
w: |||||||
w: |||||||
 [CF]6 x2 |] x6 |] %19
w: ||
w: ||
w: Lord.||
w: ||
w: ||
V:2
 x2 | x8 | x4 F4 | x8 | x8 | x8 | x4 F4 | F4 x4 | x8 || C>C x4 | x4 A3 G | F2 D6 | x8 | x6 C>C | %14
 x2 A4 G2 | F2 D6 | x8 | x8 |] x6 |] %19
V:3
 [F,C]2 | [F,D]2 [F,D]2 [F,D]2 [F,D]2 | [F,C]2 [F,B,]2 [F,A,]4 | [F,A,]4 [B,,B,]4 | [F,A,]6 x2 | %5
 [F,C]2 x6 | [F,D]2 [F,D]2 [F,D]2 [F,D]2 | [F,C]2 [F,B,]2 [F,A,]4 | [D,A,]4 [C,B,]4 || [F,,F,A,]6 | %10
 [F,A,]>[F,A,] x6 | [F,A,] [F,A,]3 A,3 G, | F,2 D,6 | [F,A,]4 [C,C]4 | [F,C]6 [F,A,]>[F,A,] | %15
 [F,A,]2 A,4 G,2 | F,2 D,6 | [C,A,]4 [C,B,]4 |] [F,,F,A,]6 |] %19
V:4
 x2 | x8 | x8 | x8 | x8 | x8 | x8 | x8 | x8 || x6 | x8 | x4 A,3 G, | F,2 D,6 | x8 | x8 | %15
 x2 A,4 G,2 | F,2 D,6 | x8 |] x6 |] %19

